X:0
T:The Drummer or Good Morrow to your Night Cap
G:reel
S:William Campbell: New and Favourite Country Dances, book 19
M:C|
L:1/8
Q:1/2=104
K:AMin
B|ABcA E2E^F|GABc dBGB       |ABcA E2Ef|edcB A2A:|
B|c2ce d2de |c2ce d/c/B/A/ GB|c2ce d2df|edcB A2A:|


10. More on Bagpipes and Other Limited-Range Instruments
=== ====================================================

The Highland pipe uses a scale which is nearer to the Mixolydian mode than
to anything else in the Western system (it is almost identical to one used
in mediaeval Arabic music, which is presumably coincidence).  It is written
as if based on A, though the actual pitch is B flat.  The two tenor drones
of a Highland pipe are tuned an octave below the low A on the chanter, with
the bass drone (added in the 18th century) an octave lower.  When Highland
pipe tunes are played on other instruments, they are nearly always played at
the written pitch of A, with the other notes of the scale brought into line
with the Mixolydian scale.  (Bad fiddle transcriptions often get this wrong,
and sharpen the G's to produce a major key).  There are only nine notes in
the standard chanter scale; some chanters and some fingerings can produce
more, but these are never called for in traditional pipe music.  A large
proportion of the tunes in the Scottish repertoire fit this scale, even if
they are not part of the pipe repertoire today.  Whether this is because
they were originally pipe tunes, or because the pipes were designed to play
Scottish vocal tunes that already fell into that scale, is anybody's guess.

